dist/images/error.svg

<svg width="16" height="16" viewBox="0 0 16 16" fill="none" xmlns="http://www.w3.org/2000/svg">
<path d="M8.41288 0.664024C8.15339 0.146578 7.3464 0.146578 7.0869 0.664024L0.337019 14.1145C0.276487 14.235 0.246544 14.3701 0.2501 14.5065C0.253657 14.6429 0.29059 14.776 0.357314 14.8929C0.424038 15.0098 0.518284 15.1065 0.630898 15.1736C0.743511 15.2407 0.870665 15.276 1.00001 15.2759H14.4998C14.6291 15.2762 14.7563 15.2411 14.869 15.1741C14.9816 15.1071 15.0759 15.0104 15.1426 14.8935C15.2093 14.7766 15.2462 14.6435 15.2496 14.5071C15.253 14.3707 15.2228 14.2357 15.162 14.1152L8.41288 0.664024ZM8.49988 12.9023H6.99991V11.3199H8.49988V12.9023ZM6.99991 9.73753V5.78152H8.49988L8.50063 9.73753H6.99991Z" fill="#C40000"/>
</svg>

<svg xmlns="http://www.w3.org/2000/svg" width="16" height="16" fill="none" viewBox="0 0 16 16"><path fill="#C40000" d="M8.413.664c-.26-.517-1.067-.517-1.326 0l-6.75 13.45a.83.83 0 0 0 .02.779.8.8 0 0 0 .274.28.7.7 0 0 0 .369.103h13.5a.7.7 0 0 0 .369-.102.8.8 0 0 0 .274-.28.82.82 0 0 0 .019-.779zM8.5 12.902H7V11.32h1.5zM7 9.738V5.782h1.5v3.956z"/></svg>
